assets/images/phone-black.svg

<svg width="16" height="16" viewBox="0 0 16 16" fill="none" xmlns="http://www.w3.org/2000/svg">
<g clip-path="url(#clip0_316_3314)">
<path fill-rule="evenodd" clip-rule="evenodd" d="M15.279 13.736C15.1787 13.836 15.0577 13.9639 14.9294 14.0992C14.6092 14.439 14.2092 14.8614 13.9585 15.0327C12.6396 15.934 10.875 15.5028 9.62681 14.9827C7.98026 14.2966 6.18762 13.0321 4.57802 11.4223C2.96691 9.81237 1.70248 8.01916 1.01643 6.37356C0.496986 5.12512 0.064814 3.36019 0.966257 2.04092C1.13744 1.79005 1.56081 1.3907 1.90016 1.06991C2.03593 0.941999 2.16284 0.82114 2.26319 0.721117C2.44134 0.54385 2.68243 0.444336 2.93376 0.444336C3.18508 0.444336 3.42617 0.54385 3.60433 0.721117L6.03119 3.14728C6.20836 3.32542 6.30782 3.56645 6.30782 3.8177C6.30782 4.06895 6.20836 4.30998 6.03119 4.48812L5.37008 5.1479C5.1493 5.36708 5.00518 5.65168 4.95919 5.95937C4.91319 6.26705 4.96778 6.58136 5.11482 6.85552C6.02413 8.57176 7.42795 9.97535 9.14435 10.8844C9.41845 11.0314 9.7327 11.0859 10.0403 11.0398C10.3479 10.9937 10.6324 10.8495 10.8514 10.6287L11.5109 9.96888C11.689 9.79161 11.9301 9.6921 12.1814 9.6921C12.4328 9.6921 12.6738 9.79161 12.852 9.96888L15.279 12.3955C15.4562 12.5735 15.5557 12.8145 15.5557 13.0657C15.5557 13.3169 15.4562 13.5579 15.279 13.736Z" fill="#8AC900"/>
</g>
<defs>
<clipPath id="clip0_316_3314">
<rect width="15.1111" height="15.1111" fill="white" transform="translate(0.444458 0.444336)"/>
</clipPath>
</defs>
</svg>

<svg width="16" height="16" fill="none" xmlns="http://www.w3.org/2000/svg"><g clip-path="url(#a)"><path fill-rule="evenodd" clip-rule="evenodd" d="M15.279 13.736c-.1.1-.221.228-.35.363-.32.34-.72.762-.97.934-1.32.901-3.084.47-4.332-.05-1.647-.686-3.44-1.95-5.049-3.56-1.611-1.61-2.876-3.404-3.562-5.05C.497 5.126.065 3.36.966 2.042c.171-.251.595-.65.934-.971.136-.128.263-.249.363-.349a.95.95 0 0 1 1.341 0l2.427 2.426a.95.95 0 0 1 0 1.341l-.66.66a1.444 1.444 0 0 0-.256 1.708 9.696 9.696 0 0 0 4.03 4.028 1.443 1.443 0 0 0 1.706-.255l.66-.66a.95.95 0 0 1 1.341 0l2.427 2.427a.95.95 0 0 1 0 1.34Z" fill="#8AC900"/></g><defs><clipPath id="a"><path fill="#fff" transform="translate(.444 .444)" d="M0 0h15.111v15.111H0z"/></clipPath></defs></svg>
